X: 7
T:To Hunt the Butterfly
M:6/8
L:1/8
Q:200
C:Words and music by Myfanwy ferch Tangwystl (m.k.a. Catherine Faber)
S:From "A Breeze Through the CONduit"
A:SCA
B:A Breeze Through the CONduit, (c) 1992 by Julia West
W:Early in the morning, I saw the fighters pass
W:Shining in their armor, leaping o'er the grass
W:The hunting horns were sounding, I watched them pounding by
W:Early in the morning, to hunt the butterfly
W:Early in the morning, to hunt the butterfly.
K:C
A2 A A2 A|_A3 E2 E|c2 c B2 A|B4 z2|c2 c c2 c|B3 G3|c2 c d2 B|A4 z E|
A2 A A2 A|_A3 E2 E|c2 c B2 A|B4 z2|c2 c c2 c|B3 G2 G|c2 c d B2|A4 z2|
c2 c c2 c|B3 G2 G|c2 c d B2|A4 z2||
